ui/StatusQ/src/assets/img/icons/checkmark.svg

<svg fill="none" height="24" viewBox="0 0 24 24" width="24" xmlns="http://www.w3.org/2000/svg"><path clip-rule="evenodd" d="m21.416 2.37592c.3447.22976.4378.69542.208 1.04006l-11.99996 18.00002c-.12464.1869-.32654.3082-.55014.3303s-.44535-.0571-.60423-.216l-6-6c-.29289-.2929-.29289-.7678 0-1.0607s.76777-.2929 1.06066 0l5.3531 5.3531 11.49257-17.23877c.2297-.34464.6954-.43777 1.04-.20801z" fill="#000" fill-rule="evenodd"/></svg>

<svg width="24" height="24" viewBox="0 0 24 24" fill="none" xmlns="http://www.w3.org/2000/svg">
<path fill-rule="evenodd" clip-rule="evenodd" d="M21.416 2.37592C21.7607 2.60568 21.8538 3.07134 21.624 3.41598L9.62404 21.416C9.4994 21.6029 9.2975 21.7242 9.0739 21.7463C8.8503 21.7684 8.62855 21.6892 8.46967 21.5303L2.46967 15.5303C2.17678 15.2374 2.17678 14.7625 2.46967 14.4696C2.76256 14.1767 3.23744 14.1767 3.53033 14.4696L8.88343 19.8227L20.376 2.58393C20.6057 2.23929 21.0714 2.14616 21.416 2.37592Z" fill="black"/>
</svg>
